svgs/sharp-solid/sensor-cloud.svg

<svg xmlns="http://www.w3.org/2000/svg" viewBox="0 0 640 512"><!--! Font Awesome Pro 6.6.0 by @fontawesome - https://fontawesome.com License - https://fontawesome.com/license (Commercial License) Copyright 2024 Fonticons, Inc. --><path d="M448 32L0 32 0 480l224 0 0-48c0-44.7 26.2-83.3 64.1-101.3C290.9 271.3 339.9 224 400 224c17.2 0 33.5 3.9 48 10.8L448 32zM112 120l0 144 0 24-48 0 0-24 0-144 0-24 48 0 0 24zm96 0l0 144 0 24-48 0 0-24 0-144 0-24 48 0 0 24zm48 312l0 80 80 0 16 0 192 0 16 0 80 0 0-80c0-38.7-27.5-71-64-78.4l0-9.6c0-30.9-25.1-56-56-56c-18.1 0-34.1 8.6-44.4 21.8C464.8 278.5 435 256 400 256c-44.2 0-80 35.8-80 80l0 17.6c-36.5 7.4-64 39.7-64 78.4z"/></svg>

<svg xmlns="http://www.w3.org/2000/svg" viewBox="0 0 640 512"><!--! Font Awesome Pro 6.4.0 by @fontawesome - https://fontawesome.com License - https://fontawesome.com/license (Commercial License) Copyright 2023 Fonticons, Inc. --><path d="M448 32H0V480H224V432c0-44.7 26.2-83.3 64.1-101.3C290.9 271.3 339.9 224 400 224c17.2 0 33.5 3.9 48 10.8V32zM112 120V264v24H64V264 120 96h48v24zm96 0V264v24H160V264 120 96h48v24zm48 312v80h80 16H544h16 80V432c0-38.7-27.5-71-64-78.4V344c0-30.9-25.1-56-56-56c-18.1 0-34.1 8.6-44.4 21.8C464.8 278.5 435 256 400 256c-44.2 0-80 35.8-80 80v17.6c-36.5 7.4-64 39.7-64 78.4z"/></svg>
